symbols/web/app_shortcut/materialsymbolsrounded/app_shortcut_wght300gradN25fill1_24px.svg

<svg xmlns="http://www.w3.org/2000/svg" height="24" width="24"><path d="m20.725 10.15-.275-.6-.6-.275q-.2-.075-.2-.275t.2-.275l.6-.275.275-.6q.075-.2.275-.2t.275.2l.275.6.6.275q.2.075.2.275t-.2.275l-.6.275-.275.6q-.075.2-.275.2t-.275-.2Zm-5.125 4.5-.7-1.55-1.55-.7q-.275-.125-.275-.4t.275-.4l1.55-.7.7-1.575q.125-.25.4-.25t.4.25l.7 1.575 1.575.7q.25.125.25.4t-.25.4l-1.575.7-.7 1.55q-.125.275-.4.275t-.4-.275Zm5.125 1.5-.275-.6-.6-.275q-.2-.075-.2-.275t.2-.275l.6-.275.275-.6q.075-.2.275-.2t.275.2l.275.6.6.275q.2.075.2.275t-.2.275l-.6.275-.275.6q-.075.2-.275.2t-.275-.2ZM7.375 22.3q-.725 0-1.225-.5-.5-.5-.5-1.2V3.4q0-.7.5-1.2t1.225-.5h9.25q.725 0 1.225.5.5.5.5 1.2v3.55h-1.4V5.8h-9.9v12.4h9.9v-1.15h1.4v3.55q0 .7-.5 1.2t-1.225.5Z"/></svg>

<svg xmlns="http://www.w3.org/2000/svg" height="24" width="24"><path d="M20.725 10.15 20.45 9.55 19.85 9.275Q19.65 9.2 19.65 9Q19.65 8.8 19.85 8.725L20.45 8.45L20.725 7.85Q20.8 7.65 21 7.65Q21.2 7.65 21.275 7.85L21.55 8.45L22.15 8.725Q22.35 8.8 22.35 9Q22.35 9.2 22.15 9.275L21.55 9.55L21.275 10.15Q21.2 10.35 21 10.35Q20.8 10.35 20.725 10.15ZM15.6 14.65 14.9 13.1 13.35 12.4Q13.075 12.275 13.075 12Q13.075 11.725 13.35 11.6L14.9 10.9L15.6 9.325Q15.725 9.075 16 9.075Q16.275 9.075 16.4 9.325L17.1 10.9L18.675 11.6Q18.925 11.725 18.925 12Q18.925 12.275 18.675 12.4L17.1 13.1L16.4 14.65Q16.275 14.925 16 14.925Q15.725 14.925 15.6 14.65ZM20.725 16.15 20.45 15.55 19.85 15.275Q19.65 15.2 19.65 15Q19.65 14.8 19.85 14.725L20.45 14.45L20.725 13.85Q20.8 13.65 21 13.65Q21.2 13.65 21.275 13.85L21.55 14.45L22.15 14.725Q22.35 14.8 22.35 15Q22.35 15.2 22.15 15.275L21.55 15.55L21.275 16.15Q21.2 16.35 21 16.35Q20.8 16.35 20.725 16.15ZM7.375 22.3Q6.65 22.3 6.15 21.8Q5.65 21.3 5.65 20.6V3.4Q5.65 2.7 6.15 2.2Q6.65 1.7 7.375 1.7H16.625Q17.35 1.7 17.85 2.2Q18.35 2.7 18.35 3.4V6.95H16.95V5.8H7.05V18.2H16.95V17.05H18.35V20.6Q18.35 21.3 17.85 21.8Q17.35 22.3 16.625 22.3Z"/></svg>
